X:124
T: ES BLUEHN DREI ROSEN AUF EINEM ZWEIG
N: E1190
O: Europa, Mitteleuropa, Deutschland, Schlesien, Neisse, Korkwitz
R: Ansinge -, Brauchtums - Lied, Kirchen - Fest, Silvester, Namenstag
M: 2/4
L: 1/16
K: G
D2 | G2G2A2A2 | B2B2A4 |
B2cBA4 | G4z2
D2 | G2G2A2A2 | B2B2A4 |
B2cBA4 | G4z4 |
A2G2A2B2 | c2B2A2
BA | G2G2A2A2 | B2B2A2
dc | B4A4 | G4z2

@@@ Tune index: 4808
